symbolic/32x32/emotes/face-worried.svg

<svg xmlns="http://www.w3.org/2000/svg" width="32" height="32" version="1">
 <path style="opacity:0.2" d="M 16,3 C 8.244,3 2,9.244 2,17 2,24.756 8.244,31 16,31 23.756,31 30,24.756 30,17 30,9.244 23.756,3 16,3 Z"/>
 <path style="fill:#ffa50c" d="M 16,2 C 8.244,2 2,8.244 2,16 2,23.756 8.244,30 16,30 23.756,30 30,23.756 30,16 30,8.244 23.756,2 16,2 Z"/>
 <circle style="opacity:0.1" cx="11" cy="13" r="2"/>
 <circle style="fill:#3f3f3f" cx="11" cy="12" r="2"/>
 <circle style="opacity:0.1" cx="21" cy="13" r="2"/>
 <circle style="fill:#3f3f3f" cx="21" cy="12" r="2"/>
 <path style="opacity:0.1;fill:none;stroke:#000000;stroke-width:1.5;stroke-linecap:round;stroke-linejoin:round" d="m 9.7060095,24.24144 c 0,0 2.0999995,-2.8 6.2999995,-2.8 4.2,0 6.3,2.8 6.3,2.8 v 0 0"/>
 <path style="fill:none;stroke:#3f3f3f;stroke-width:1.5;stroke-linecap:round;stroke-linejoin:round" d="m 9.7060095,23.24144 c 0,0 2.0999995,-2.8 6.2999995,-2.8 4.2,0 6.3,2.8 6.3,2.8 v 0 0"/>
 <path style="fill:#ffffff;opacity:0.2" d="M 16 2 C 8.244 2 2 8.244 2 16 C 2 16.168842 2.0195214 16.33264 2.0253906 16.5 C 2.2891326 8.9794325 8.4128418 3 16 3 C 23.587158 3 29.710867 8.9794325 29.974609 16.5 C 29.980479 16.33264 30 16.168842 30 16 C 30 8.244 23.756 2 16 2 z"/>
</svg>

<svg xmlns="http://www.w3.org/2000/svg" width="32" height="32" version="1"><path style="opacity:.2" d="M16 3C8.244 3 2 9.244 2 17s6.244 14 14 14 14-6.244 14-14S23.756 3 16 3z"/><path style="fill:#ffa50c" d="M16 2C8.244 2 2 8.244 2 16s6.244 14 14 14 14-6.244 14-14S23.756 2 16 2z"/><circle style="opacity:.1" cx="11" cy="13" r="2"/><circle style="fill:#3f3f3f" cx="11" cy="12" r="2"/><circle style="opacity:.1" cx="21" cy="13" r="2"/><circle style="fill:#3f3f3f" cx="21" cy="12" r="2"/><path style="opacity:.1;fill:none;stroke:#000;stroke-width:1.5;stroke-linecap:round;stroke-linejoin:round" d="M9.706 24.241s2.1-2.8 6.3-2.8c4.2 0 6.3 2.8 6.3 2.8v0"/><path style="fill:none;stroke:#3f3f3f;stroke-width:1.5;stroke-linecap:round;stroke-linejoin:round" d="M9.706 23.241s2.1-2.8 6.3-2.8c4.2 0 6.3 2.8 6.3 2.8v0"/><path style="fill:#fff;opacity:.2" d="M16 2C8.244 2 2 8.244 2 16c0 .169.02.333.025.5C2.29 8.98 8.413 3 16 3s13.71 5.98 13.975 13.5c.005-.167.025-.331.025-.5 0-7.756-6.244-14-14-14z"/></svg>
